gruvbox_icons/symbolic/status/auth-sim-locked-symbolic.svg

<svg xmlns="http://www.w3.org/2000/svg" width="16" height="16" version="1.1">
 <path style="fill:#cdd3e0" d="M 12.984925,9 C 11.889447,9 11,9.8635789 11,10.934456 v 1.066035 H 10 V 16 h 6 V 11.999509 H 15 V 10.934456 C 15,9.8635789 14.078392,9 12.984925,9 Z m 0,1 C 13.533668,10 14,10.39214 14,10.934456 v 1.066035 H 12 V 10.934456 C 12,10.39214 12.435176,10 12.984925,10 Z"/>
 <path style="opacity:0.35;fill:#cdd3e0" d="M 4,0 C 2,0 2,2 2,2 v 12 c 0,2 2,2 2,2 H 9 V 14.000977 H 7 V 12 H 9 V 11 H 3.9990234 V 9.0019531 H 10.669922 C 11.236995,8.2942661 12.093156,7.9804832 13,7.97525 c 0.352,0 0.686,0.0725 1,0.1875 V 3 L 11,0 Z m 1,5.9970703 1,0.00586 V 8.0019532 H 3.9990234 L 4.0009765,7 C 4.0009765,7 4,5.9970703 5,5.9970703 Z m 6,0 C 12,5.9970703 12,7 12,7 L 11.998,7.9980468 H 10 V 5.9990234 Z m -4,0.00586 H 9 V 8.0019532 H 7 Z M 3.9990234,12 H 6 v 2.000977 l -1,-0.002 C 4,13.999024 4.0009765,13 4.0009765,13 Z"/>
</svg>

<?xml version="1.0" encoding="UTF-8"?>
<svg height="16px" viewBox="0 0 16 16" width="16px" xmlns="http://www.w3.org/2000/svg">
    <g fill="#2e3436">
        <path d="m 13 9 c -1.097656 0 -2 0.902344 -2 2 v 1 h -1 v 4 h 6 v -4 h -1 v -1 c 0 -1.097656 -0.902344 -2 -2 -2 z m 0 1 c 0.5625 0 1 0.4375 1 1 v 1 h -2 v -1 c 0 -0.5625 0.4375 -1 1 -1 z m 0 0"/>
        <path d="m 4 0 c -2 0 -2 2 -2 2 v 12 c 0 2 2 2 2 2 h 5 v -5 h -5 v -2 h 6.667969 c 0.558593 -0.679688 1.398437 -1.125 2.332031 -1.125 c 0.351562 0 0.6875 0.074219 1 0.1875 v -5.0625 l -3 -3 z m 1 6 l 1 0.007812 v 2 h -2 v -1.007812 s 0 -1 1 -1 z m 6 0 c 1 0 1 1 1 1 l -0.003906 1 h -2 v -2 z m -4 0.007812 h 2 v 2 h -2 z m -3 5.996094 h 2 v 2 l -1 -0.003906 c -1 0 -1 -1 -1 -1 z m 3 0 h 2 v 2 h -2 z m 0 0" fill-opacity="0.34902"/>
    </g>
</svg>
